X:1
T:Deeper Secrets
C:John Wobus
S:John Wobus composed 6/23/2003
M:6/8
R:jig
K:D dor
|: A2A G2G | A2A G2G | FDD DFG | Add c2c | A2A G2G | A2A G2G |
 F2A GAG | FDD D2G :||: B3 BAG | Add c2A | B3 BAG |
 ADD D2A | B3 BAG | Add BAG | FGA GFE | FDD D2A :|
W:Copyright 2003 John Wobus, PGTPPCATPL AORR
